src/actions/16/view-institution-delete.svg

<svg viewBox="0 0 16 16" xmlns="http://www.w3.org/2000/svg">
  <defs id="defs3051">
    <style type="text/css" id="current-color-scheme">
      .ColorScheme-Text {
        color:#363636;
      }
      .ColorScheme-NegativeText {
        color:#d19494;
      }
      </style>
  </defs>
    <path d="m8 2.0039062-6 3.8984376v1.0976562h1v6h-1v1h6v-1h-2v-6h4v2h1v-2h1v2h1v-2h1v-1.0976562zm0 1.1933594     4.310547 2.8027344h-8.6210939zm-4 3.8027344h1v6h-1z"
          style="fill:currentColor;fill-opacity:1;stroke:none"
          class="ColorScheme-Text"/>
    <path d="m9 11h4.999999v1h-4.999999z"
          style="fill:currentColor;fill-opacity:1;stroke:none"
          class="ColorScheme-NegativeText"
    />
</svg>

<svg xmlns="http://www.w3.org/2000/svg" viewBox="0 0 16 16">
    <path d="M8 2.004 2 5.902V7h1v6H2v1h6v-1H6V7h4v2h1V7h1v2h1V7h1V5.902zm0 1.193L12.31 6H3.69zM4 7h1v6H4z" style="fill:currentColor;fill-opacity:1;stroke:none;color:#050505;opacity:.7"/>
    <path d="M9 11h5v1H9z" style="fill:currentColor;fill-opacity:1;stroke:none;color:#d98c8c"/>
</svg>
